seregacthtuf/keypad.svg

<?xml version="1.0" encoding="UTF-8" standalone="no"?>
<!-- Generator: Adobe Illustrator 28.1.0, SVG Export Plug-In . SVG Version: 6.00 Build 0)  -->

<svg
   version="1.1"
   id="svg1"
   sodipodi:docname="keypad.svg"
   x="0px"
   y="0px"
   viewBox="0 0 512 512"
   style="enable-background:new 0 0 512 512;"
   xml:space="preserve"
   inkscape:version="1.4 (86a8ad7, 2024-10-11)"
   xmlns:inkscape="http://www.inkscape.org/namespaces/inkscape"
   xmlns:sodipodi="http://sodipodi.sourceforge.net/DTD/sodipodi-0.dtd"
   xmlns="http://www.w3.org/2000/svg"
   xmlns:svg="http://www.w3.org/2000/svg"><defs
   id="defs19">
	
	
	
	
	
	
	
	
	
	
	
	
	
	

		
		
	
		
		
	
		
		
	
		
		
	
		
		
	
		
		
	
		
		
	
		
		
	
		
		
	
		
		
	
		
		
	
		
	
		
		
	</defs>
<style
   type="text/css"
   id="style1">
	.st0{display:none;}
	.st1{display:inline;fill:#FFFFFF;}
	.st2{fill:#FFFFFF;}
	.st3{fill-rule:evenodd;clip-rule:evenodd;fill:#FFFFFF;}
</style>
<sodipodi:namedview
   bordercolor="#000000"
   borderopacity="0.25"
   id="namedview1"
   inkscape:current-layer="g19"
   inkscape:cx="202.51972"
   inkscape:cy="325.04877"
   inkscape:deskcolor="#d1d1d1"
   inkscape:pagecheckerboard="true"
   inkscape:pageopacity="0.0"
   inkscape:showpageshadow="2"
   inkscape:window-height="1001"
   inkscape:window-maximized="1"
   inkscape:window-width="1920"
   inkscape:window-x="-9"
   inkscape:window-y="-9"
   inkscape:zoom="1.0813762"
   pagecolor="#3e3e3e">
	</sodipodi:namedview>

<g
   id="g19"><path
     id="path3"
     class="st3"
     d="m 139.93575,139.90089 v 65.4 h 65.4 v -65.4 z m 47.3,47.4 h -29.4 v -29.4 h 29.4 z"
     style="enable-background:new 0 0 512 512"
     inkscape:label="path1" /><path
     id="path5"
     class="st3"
     d="m 223.34473,139.87247 v 65.4 h 65.4 v -65.4 z m 47.4,47.4 h -29.4 v -29.4 h 29.4 z"
     inkscape:label="path2"
     style="enable-background:new 0 0 512 512" /><path
     id="path7"
     class="st3"
     d="m 306.68933,139.87394 v 65.4 h 65.4 v -65.4 z m 47.4,47.4 h -29.4 v -29.4 h 29.4 z"
     inkscape:label="path3"
     style="enable-background:new 0 0 512 512" /><path
     id="path9"
     class="st3"
     d="m 139.93552,223.29048 v 65.4 h 65.4 v -65.4 z m 47.3,47.4 h -29.4 v -29.4 h 29.4 z"
     inkscape:label="path4"
     style="enable-background:new 0 0 512 512" /><path
     id="path10"
     class="st3"
     d="m 223.3445,223.26206 v 65.4 h 65.4 v -65.4 z m 47.4,47.4 h -29.4 v -29.4 h 29.4 z"
     inkscape:label="path5"
     style="enable-background:new 0 0 512 512" /><path
     id="path13"
     class="st3"
     d="m 306.6891,223.26353 v 65.4 h 65.4 v -65.4 z m 47.4,47.4 h -29.4 v -29.4 h 29.4 z"
     inkscape:label="path6"
     style="enable-background:new 0 0 512 512" /><path
     id="path14"
     class="st3"
     d="m 139.93575,306.67909 v 65.4 h 65.4 v -65.4 z m 47.3,47.4 h -29.4 v -29.4 h 29.4 z"
     inkscape:label="path7"
     style="enable-background:new 0 0 512 512" /><path
     id="path15"
     class="st3"
     d="m 223.34473,306.65067 v 65.4 h 65.4 v -65.4 z m 47.4,47.4 h -29.4 v -29.4 h 29.4 z"
     inkscape:label="path8"
     style="enable-background:new 0 0 512 512" /><path
     id="path16"
     class="st3"
     d="m 306.68933,306.65214 v 65.4 h 65.4 v -65.4 z m 47.4,47.4 h -29.4 v -29.4 h 29.4 z"
     inkscape:label="path9"
     style="enable-background:new 0 0 512 512" /><path
     id="path17"
     class="st3"
     d="m 139.93575,390.06819 v 65.4 h 65.4 v -65.4 z m 47.3,47.4 h -29.4 v -29.4 h 29.4 z"
     inkscape:label="path10"
     style="enable-background:new 0 0 512 512" /><path
     id="path18"
     class="st3"
     d="m 223.34473,390.13977 v 65.4 h 65.4 v -65.4 z m 47.4,47.3 h -29.4 v -29.4 h 29.4 z"
     inkscape:label="path11"
     style="enable-background:new 0 0 512 512" /><path
     id="path19"
     class="st3"
     d="m 306.68933,390.04124 v 65.4 h 65.4 v -65.4 z m 47.4,47.4 h -29.4 v -29.4 h 29.4 z"
     inkscape:label="path12"
     style="enable-background:new 0 0 512 512" /><path
     class="st3"
     d="M 383.6,56.2 H 128.4 c -3.5,0 -6.4,2.5 -6.4,5.6 v 54.3 c 0,3.1 2.9,5.6 6.4,5.6 h 255.3 c 3.5,0 6.4,-2.5 6.4,-5.6 V 61.8 c 0,-3.1 -3,-5.6 -6.5,-5.6 z M 197.2,104.5 H 139 v -18 h 58.2 z"
     id="path8"
     inkscape:label="path13"
     style="enable-background:new 0 0 512 512" /><path
     class="st2"
     d="M 85.9,20.2 V 491.8 H 426 V 20.2 Z M 408.1,473.8 H 103.9 V 38.2 H 408 v 435.6 z"
     id="path1"
     inkscape:label="path14"
     style="enable-background:new 0 0 512 512" /></g>
</svg>

<?xml version="1.0" encoding="UTF-8" standalone="no"?>
<!-- Generator: Adobe Illustrator 28.1.0, SVG Export Plug-In . SVG Version: 6.00 Build 0)  -->

<svg
   version="1.1"
   id="svg1"
   sodipodi:docname="keypad.svg"
   x="0px"
   y="0px"
   viewBox="0 0 512 512"
   style="enable-background:new 0 0 512 512;"
   xml:space="preserve"
   inkscape:version="1.4 (86a8ad7, 2024-10-11)"
   xmlns:inkscape="http://www.inkscape.org/namespaces/inkscape"
   xmlns:sodipodi="http://sodipodi.sourceforge.net/DTD/sodipodi-0.dtd"
   xmlns="http://www.w3.org/2000/svg"
   xmlns:svg="http://www.w3.org/2000/svg"><defs
   id="defs19">
	
	
	
	
	
	
	
	
	
	
	
	
	
	

		
		
	
		
		
	
		
		
	
		
		
	
		
		
	
		
		
	
		
		
	
		
		
	
		
		
	
		
		
	
		
		
	
		
	
		
		
	</defs>
<style
   type="text/css"
   id="style1">
	.st0{display:none;}
	.st1{display:inline;fill:#FFFFFF;}
	.st2{fill:#FFFFFF;}
	.st3{fill-rule:evenodd;clip-rule:evenodd;fill:#FFFFFF;}
</style>
<sodipodi:namedview
   bordercolor="#000000"
   borderopacity="0.25"
   id="namedview1"
   inkscape:current-layer="svg1"
   inkscape:cx="203.90684"
   inkscape:cy="325.04877"
   inkscape:deskcolor="#d1d1d1"
   inkscape:pagecheckerboard="true"
   inkscape:pageopacity="0.0"
   inkscape:showpageshadow="2"
   inkscape:window-height="1001"
   inkscape:window-maximized="1"
   inkscape:window-width="1920"
   inkscape:window-x="-9"
   inkscape:window-y="-9"
   inkscape:zoom="1.0813762"
   pagecolor="#000000">
	</sodipodi:namedview>

<path
   d="M 0,9.9999996e-7 H 512 V 512 H 0 Z"
   fill="#000000"
   fill-opacity="1"
   id="path1"
   style="enable-background:new 0 0 512 512" /><g
   id="g1"
   style="enable-background:new 0 0 512 512"><path
     id="path3"
     style="enable-background:new 0 0 512 512"
     class="st3"
     inkscape:label="path1"
     d="M 85.900391 20.199219 L 85.900391 491.80078 L 426 491.80078 L 426 20.199219 L 85.900391 20.199219 z M 103.90039 38.199219 L 408 38.199219 L 408 473.80078 L 103.90039 473.80078 L 103.90039 38.199219 z M 128.40039 56.199219 C 124.90039 56.199219 122 58.700781 122 61.800781 L 122 116.09961 C 122 119.19961 124.90039 121.69922 128.40039 121.69922 L 383.69922 121.69922 C 387.19922 121.69922 390.09961 119.19961 390.09961 116.09961 L 390.09961 61.800781 C 390.09961 58.700781 387.09961 56.199219 383.59961 56.199219 L 128.40039 56.199219 z M 139 86.5 L 197.19922 86.5 L 197.19922 104.5 L 139 104.5 L 139 86.5 z M 223.3457 139.87305 L 223.3457 205.27344 L 288.74414 205.27344 L 288.74414 139.87305 L 223.3457 139.87305 z M 306.68945 139.87305 L 306.68945 205.27344 L 372.08984 205.27344 L 372.08984 139.87305 L 306.68945 139.87305 z M 139.93555 139.90039 L 139.93555 205.30078 L 205.33594 205.30078 L 205.33594 139.90039 L 139.93555 139.90039 z M 241.3457 157.87305 L 270.74414 157.87305 L 270.74414 187.27344 L 241.3457 187.27344 L 241.3457 157.87305 z M 324.68945 157.87305 L 354.08984 157.87305 L 354.08984 187.27344 L 324.68945 187.27344 L 324.68945 157.87305 z M 157.83594 157.90039 L 187.23633 157.90039 L 187.23633 187.30078 L 157.83594 187.30078 L 157.83594 157.90039 z M 223.34375 223.26172 L 223.34375 288.66211 L 288.74414 288.66211 L 288.74414 223.26172 L 223.34375 223.26172 z M 306.68945 223.26367 L 306.68945 288.66406 L 372.08984 288.66406 L 372.08984 223.26367 L 306.68945 223.26367 z M 139.93555 223.29102 L 139.93555 288.69141 L 205.33594 288.69141 L 205.33594 223.29102 L 139.93555 223.29102 z M 241.34375 241.26172 L 270.74414 241.26172 L 270.74414 270.66211 L 241.34375 270.66211 L 241.34375 241.26172 z M 324.68945 241.26367 L 354.08984 241.26367 L 354.08984 270.66406 L 324.68945 270.66406 L 324.68945 241.26367 z M 157.83594 241.29102 L 187.23633 241.29102 L 187.23633 270.69141 L 157.83594 270.69141 L 157.83594 241.29102 z M 223.3457 306.65039 L 223.3457 372.05078 L 288.74414 372.05078 L 288.74414 306.65039 L 223.3457 306.65039 z M 306.68945 306.65234 L 306.68945 372.05273 L 372.08984 372.05273 L 372.08984 306.65234 L 306.68945 306.65234 z M 139.93555 306.67969 L 139.93555 372.07812 L 205.33594 372.07812 L 205.33594 306.67969 L 139.93555 306.67969 z M 241.3457 324.65039 L 270.74414 324.65039 L 270.74414 354.05078 L 241.3457 354.05078 L 241.3457 324.65039 z M 324.68945 324.65234 L 354.08984 324.65234 L 354.08984 354.05273 L 324.68945 354.05273 L 324.68945 324.65234 z M 157.83594 324.67969 L 187.23633 324.67969 L 187.23633 354.07812 L 157.83594 354.07812 L 157.83594 324.67969 z M 306.68945 390.04102 L 306.68945 455.44141 L 372.08984 455.44141 L 372.08984 390.04102 L 306.68945 390.04102 z M 139.93555 390.06836 L 139.93555 455.46875 L 205.33594 455.46875 L 205.33594 390.06836 L 139.93555 390.06836 z M 223.3457 390.14062 L 223.3457 455.53906 L 288.74414 455.53906 L 288.74414 390.14062 L 223.3457 390.14062 z M 241.3457 408.03906 L 270.74414 408.03906 L 270.74414 437.43945 L 241.3457 437.43945 L 241.3457 408.03906 z M 324.68945 408.04102 L 354.08984 408.04102 L 354.08984 437.44141 L 324.68945 437.44141 L 324.68945 408.04102 z M 157.83594 408.06836 L 187.23633 408.06836 L 187.23633 437.46875 L 157.83594 437.46875 L 157.83594 408.06836 z " /></g>
</svg>
